X: 9418
T: Daniel's Mandola
R: polka
M: 2/4
K: Gmajor
|:D|G>A BG|AE ED|B/c/d BG|AB A2|d>c BG|
A/B/A/G/ FD|1 EB AD|E2 E:|2 EG GF|G2 G2||
d>c Bd|cB AB/A/|GA BG|c2 BA|Bd GB|
Ac FD|1 EB AD|E2 ED:|2 EG GF|G2 G||

